app/assets/images/ralph-white.svg

<svg xmlns="http://www.w3.org/2000/svg" width="258" height="258" viewBox="0 0 258 258"><title>robot_only_alternative</title><g fill="#FFF" fill-rule="evenodd"><path d="M183.78 190.4l-3.187-3.2c1.734-1.3 2.807-3.4 2.807-5.7.046-4-3.2-7.3-7.2-7.3-3.992 0-7.2 3.3-7.2 7.3-.033 2.3 1.1 4.4 2.9 5.8l-3.23 3.1c-2.558-2.1-4.17-5.3-4.17-8.9-.017-2.9 1-4.5 2.8-7.5h-.3v-37h-5v77.4l3 1.9v6.7h-35v-6.7l4.17-1.3h.83v-24h-12v23.4l5 1.9v6.3H93v-6.3l3.155-2.2-.243-77.1H91v37h-.28c1.74 3 2.78 4.6 2.78 7.5.017 3.6-1.6 6.8-4.2 9l-3.16-3.2c1.757-1.4 2.86-3.5 2.86-5.8.033-4-3.2-7.3-7.2-7.3-4.005 0-7.2 3.3-7.2 7.3-.046 2.3 1.1 4.4 2.8 5.7l-3.18 3.2c-2.536-2.2-4.12-5.4-4.12-8.9.034-2.9.9-5.6 2.9-7.6v-56.8c0-2.2 1.8-4 4-4h104.042c2.178 0 3.958 1.8 3.958 4v56.8c2 2 2.9 4.7 2.9 7.6-.034 3.6-1.6 6.8-4.1 8.9h-.02zM102.54 67h52.916c2.178 0 4.542 1.2 4.542 3.4v34.5c0 2.2-2.4 4.1-4.5 4.1h-52.958c-2.17 0-4.542-1.9-4.542-4.1V70.4c0-2.2 2.4-3.4 4.5-3.4h.042zm47.488-11l-3.192 4.6C142.8 56.7 136.2 54.1 129 54.1c-7.236 0-13.8 2.6-17.8 6.5l-3.23-4.5c5.042-4.6 12.63-7.5 21.03-7.5 8.446 0 16 2.9 21 7.4h.03zm-.057-7.1c-5.48-4.1-12.873-6.4-20.773-6.4-7.88 0-15.3 2.3-20.7 6.4-1.327 1-2.5 2.1-3.5 3.2l-3.172-4.6C108.024 41.1 118 37 129.2 37c10.992 0 20.7 3.9 27 10l-3.225 4.6c-.886-.9-1.875-1.8-2.975-2.7h-.027zm-20.954-23c13.606 0 25.68 4.9 33.38 12.4l-3.166 4.6c-6.588-7-17.634-11.5-30.234-11.5-12.547 0-23.7 4.5-30.2 11.5l-3.207-4.5C103.275 30.8 115.4 25.9 129 25.9h.02zM129 .7C58.134.7.7 58.1.7 129 .682 199.9 58.1 257.3 129 257.3c70.866 0 128.3-57.4 128.3-128.3C257.318 58.1 199.9.7 129 .7z"/><path d="M115.52 88.5c-1.896 0-3.42-1.6-3.42-3.5-.022-1.9 1.5-3.4 3.4-3.4 1.93 0 3.5 1.5 3.5 3.4-.03 1.9-1.6 3.5-3.5 3.5h.02zm0-10.2c-3.716 0-6.72 3-6.72 6.7-.012 3.7 3 6.8 6.7 6.8 3.74 0 6.8-3.1 6.8-6.8-.044-3.7-3.1-6.7-6.8-6.7h.02zM142.567 88.5c-1.904 0-3.467-1.6-3.467-3.5.02-1.9 1.6-3.4 3.5-3.4 1.864 0 3.4 1.5 3.4 3.4.027 1.9-1.5 3.5-3.4 3.5h-.033zm0-10.2c-3.73 0-6.767 3-6.767 6.7.017 3.7 3 6.8 6.8 6.8 3.688 0 6.7-3.1 6.7-6.8.005-3.7-3-6.7-6.7-6.7h-.033z"/></g></svg>

<svg xmlns="http://www.w3.org/2000/svg" xmlns:xlink="http://www.w3.org/1999/xlink" xmlns:sketch="http://www.bohemiancoding.com/sketch/ns" width="258px" height="258px" viewBox="0 0 258 258" version="1.1"><!-- Generator: Sketch 3.3.3 (12081) - http://www.bohemiancoding.com/sketch --><title>robot_only_alternative</title><desc>Created with Sketch.</desc><defs/><g stroke="none" stroke-width="1" fill="none" fill-rule="evenodd" sketch:type="MSPage"><g sketch:type="MSLayerGroup" fill="#FFFFFF"><path d="M183.779 190.4 L180.593 187.2 C182.327 185.9 183.4 183.8 183.4 181.5 C183.446 177.5 180.2 174.2 176.2 174.2 C172.208 174.2 169 177.5 169 181.5 C168.967 183.8 170.1 185.9 171.9 187.3 L168.671 190.4 C166.112 188.3 164.5 185.1 164.5 181.5 C164.483 178.6 165.5 177 167.3 174 L167 174 L167 137 L162 137 L162 214.4 L165 216.3 L165 223 L130 223 L130 216.3 L134.169 215 L135 215 L135 191 L123 191 L123 214.4 L128 216.3 L128 222.6 L93 222.6 L93 216.3 L96.155 214.1 L95.912 137 L91 137 L91 174 L90.719 174 C92.46 177 93.5 178.6 93.5 181.5 C93.517 185.1 91.9 188.3 89.3 190.5 L86.14 187.3 C87.897 185.9 89 183.8 89 181.5 C89.033 177.5 85.8 174.2 81.8 174.2 C77.795 174.2 74.6 177.5 74.6 181.5 C74.554 183.8 75.7 185.9 77.4 187.2 L74.221 190.4 C71.684 188.2 70.1 185 70.1 181.5 C70.134 178.6 71 175.9 73 173.9 L73 117.1 C73 114.9 74.8 113.1 77 113.1 L181.042 113.1 C183.22 113.1 185 114.9 185 117.1 L185 173.9 C187 175.9 187.9 178.6 187.9 181.5 C187.866 185.1 186.3 188.3 183.8 190.4 L183.779 190.4 Z M102.542 67 L155.458 67 C157.636 67 160 68.2 160 70.4 L160 104.9 C160 107.1 157.6 109 155.5 109 L102.542 109 C100.373 109 98 107.1 98 104.9 L98 70.4 C98 68.2 100.4 67 102.5 67 L102.542 67 Z M150.03 56 L146.838 60.6 C142.8 56.7 136.2 54.1 129 54.1 C121.764 54.1 115.2 56.7 111.2 60.6 L107.97 56.1 C113.012 51.5 120.6 48.6 129 48.6 C137.446 48.6 145 51.5 150 56 L150.03 56 Z M149.973 48.9 C144.492 44.8 137.1 42.5 129.2 42.5 C121.319 42.5 113.9 44.8 108.5 48.9 C107.173 49.9 106 51 105 52.1 L101.828 47.5 C108.024 41.1 118 37 129.2 37 C140.192 37 149.9 40.9 156.2 47 L152.975 51.6 C152.089 50.7 151.1 49.8 150 48.9 L149.973 48.9 Z M129.019 25.9 C142.626 25.9 154.7 30.8 162.4 38.3 L159.234 42.9 C152.646 35.9 141.6 31.4 129 31.4 C116.453 31.4 105.3 35.9 98.8 42.9 L95.593 38.4 C103.275 30.8 115.4 25.9 129 25.9 L129.019 25.9 Z M129 0.7 C58.134 0.7 0.7 58.1 0.7 129 C0.682 199.9 58.1 257.3 129 257.3 C199.866 257.3 257.3 199.9 257.3 129 C257.318 58.1 199.9 0.7 129 0.7 L129 0.7 Z" sketch:type="MSShapeGroup"/><path d="M115.519 88.5 C113.624 88.5 112.1 86.9 112.1 85 C112.078 83.1 113.6 81.6 115.5 81.6 C117.43 81.6 119 83.1 119 85 C118.971 86.9 117.4 88.5 115.5 88.5 L115.519 88.5 Z M115.519 78.3 C111.804 78.3 108.8 81.3 108.8 85 C108.788 88.7 111.8 91.8 115.5 91.8 C119.239 91.8 122.3 88.7 122.3 85 C122.256 81.3 119.2 78.3 115.5 78.3 L115.519 78.3 Z" sketch:type="MSShapeGroup"/><path d="M142.567 88.5 C140.663 88.5 139.1 86.9 139.1 85 C139.121 83.1 140.7 81.6 142.6 81.6 C144.464 81.6 146 83.1 146 85 C146.027 86.9 144.5 88.5 142.6 88.5 L142.567 88.5 Z M142.567 78.3 C138.838 78.3 135.8 81.3 135.8 85 C135.817 88.7 138.8 91.8 142.6 91.8 C146.288 91.8 149.3 88.7 149.3 85 C149.305 81.3 146.3 78.3 142.6 78.3 L142.567 78.3 Z" sketch:type="MSShapeGroup"/></g></g></svg>
